X: 1
T: Etz Chayim, (It Is a) Tree of Life   [Dm]
M: C
L: 1/8
K: Dm
AAA |:\
"Dm"D2D2 "F"F2F2 | "Gm"G2GA- "A"AAAA |\
"Dm"D2D2 "F"F2F2 | "Gm"z2G2 "A"A4- :|  HA8 |]
|:\
"Dm"z2d2 "C"c4   | "Gm"BAGA- "A"AAAA |\
"Dm"z2d2 "C"c4   | "Gm"BAGA- "A"A4- :| HA8 |]

%%sep 1 1 500

